X:1
T:Title
%%score { 1 | 2 }
L:1/8
Q:1/4=212
M:3/2
K:Bb
V:1 treble nm="Grand Piano"
V:2 bass 
V:1
 [DF]4 [FB]4 [DF]4 | A6 G2 G4 | F4 C4 E4 | D12 | [DF]4 [FB]4 [DF]4 | A6 G2 G4 | F4 C4 E4 | D12 | %8
w: J.~S.~Mitchell * *||||||||
 [DF]4 d4 c4 | B6 A2 B4 | [EG]4 [Ee]4 [=Ed]4 | c6 =B2 c4 | [Dd]4 [B,FB]4 [B,EG]4 | [B,DF]12 | %14
w: ||||||
 [A,CF]4 [B,DF]4 [CEF]4 | [B,DF]12 |] %16
w: ||
V:2
 [B,,B,]4 [D,B,]4 [B,,B,]4 | [E,B,E]6 [E,B,E]2 [E,B,E]4 | [F,A,C]4 [F,A,]4 [F,A,C]4 | [B,,B,]12 | %4
 [B,,B,]4 [D,B,]4 [B,,B,]4 | [E,B,E]6 [E,B,E]2 [E,B,E]4 | [F,A,C]4 [F,A,]4 [F,A,]4 | [B,,B,]12 | %8
 [B,,B,]4[K:treble] [B,DF]4 [A,D^F]4 | [G,DG]6 [G,D^F]2 [G,DG]4 | C,4 [C,C]4 [C,B,]4 | %11
 [F,A,F]6 [F,_A,F]2 [F,=A,F]4 | [B,,B,]4 D,4 E,4 | F,12 | F,,4 F,,4 F,,4 | B,,12 |] %16

